Adwaita++-Light/panel/22/indicator-virtual-box.svg

<svg height="22" width="22" xmlns="http://www.w3.org/2000/svg">
  <path d="m5 3c-1.108 0-2 .892-2 2v12c0 1.108.892 2 2 2h12c1.108 0 2-.892 2-2v-12c0-1.108-.892-2-2-2zm4.9921875 2a1.0001 1.0001 0 0 1 .9687505.7246094l1.111328 3.8925781.978515-2.9335937a1.0001 1.0001 0 0 1 1.898438 0l1.771484 5.3164062h1.279297v2h-2a1.0001 1.0001 0 0 1 -.949219-.683594l-1.050781-3.152344-1.050781 3.152344a1.0001 1.0001 0 0 1 -1.910157-.041015l-.867187-3.035157-1.1914062 5.955078a1.0001 1.0001 0 0 1 -1.9414063.080079l-1.7929687-6.275391h-1.2460938v-2h2a1.0001 1.0001 0 0 1 .9609375.7246094l.8671875 3.0351566 1.1914062-5.9550785a1.0001 1.0001 0 0 1 .9726563-.8046875z" fill="#444"/>
</svg>

<svg xmlns="http://www.w3.org/2000/svg" width="22" height="22" version="1.1">
 <defs>
  <style id="current-color-scheme" type="text/css">
   .ColorScheme-Text { color:#444444; } .ColorScheme-Highlight { color:#4285f4; }
  </style>
 </defs>
 <path style="fill:currentColor" class="ColorScheme-Text" d="M 5 3 C 3.892 3 3 3.892 3 5 L 3 17 C 3 18.108 3.892 19 5 19 L 17 19 C 18.108 19 19 18.108 19 17 L 19 5 C 19 3.892 18.108 3 17 3 L 5 3 z M 9.9921875 5 A 1.0001 1.0001 0 0 1 10.960938 5.7246094 L 12.072266 9.6171875 L 13.050781 6.6835938 A 1.0001 1.0001 0 0 1 14.949219 6.6835938 L 16.720703 12 L 18 12 L 18 14 L 16 14 A 1.0001 1.0001 0 0 1 15.050781 13.316406 L 14 10.164062 L 12.949219 13.316406 A 1.0001 1.0001 0 0 1 11.039062 13.275391 L 10.171875 10.240234 L 8.9804688 16.195312 A 1.0001 1.0001 0 0 1 7.0390625 16.275391 L 5.2460938 10 L 4 10 L 4 8 L 6 8 A 1.0001 1.0001 0 0 1 6.9609375 8.7246094 L 7.828125 11.759766 L 9.0195312 5.8046875 A 1.0001 1.0001 0 0 1 9.9921875 5 z"/>
</svg>
